X: 24857
T: Magh Seóla
R: barndance
M: 4/4
K: Gmajor
|:"G"B2cc/ "D"d/ d2 BA|"Em"G4 "G"BcdG|"C"e3 d "Em"cB AG|"G"B2B/A/G/B/ "D"A3 e|
"Bm"d2 B2 "C"g2 fg|e3 d"Bm"B2 AB|"C"G2 A/ BB/ "D"A2 FG|1 "C" G4G3 G/D/:|2 "G" G4G3 G/D/|
|:"G"Bc/B/ AG "D"d4|"C"ee/ d/ ce "D"d2 ga|"Em" be gb "D"ag fd|"C"dc Bc "D"A3 e|
"Bm"d2 B2 "C"g2 fg|e3 d "Bm"B2 AB|"C" G2 A/ BB/ "D"A2 FG|1 "C" G4G3A/D/:|2 "G"G8||

